X: 73
T: Pretty Little Shoes
B: canberra pickers and fiddlers
B: old time tunes update
B: tunes
M:C|
L:1/8
R: Reel
Q: 1/4=100
K:Amixolydian
V:1 
+slide+[A2A2]-|[AA]BcA AcBA|[A3A3][AB][A2A2]E2|[E2A2][B2e2][c2e2]d2|+slide+ [e3e3][ee][e2e2][e2e2]-|
[ee]fgf e2d2|+slide+cBAG E2AB|cBAc BAG2|[A3A3][AA][A2A2]||
ef|gfedc2d2|+slide+[e3e3][ee] [e2e2]ef|gfedc2d2|+slide+[e3e3][ee][e2e2] ef|
gfed+slide+c3B|A2G2E2AB|cBAc BAG2|[A3A3][AA][A2A2]||
[A2A2]-|[AA]BcB A2G2|ABAG E2(EG)|A2AB=c2d2|+slide+ [e3e3][ee][e2e2][e2e2]-|
[ee]fgf e2d2|+slide+cBAG E2AB|cBAc BAG2|[A3A3][AA][A2A2]||
% abcbook-tune_id 67a7d9ec878af7dc18a4a767
% abcbook-tune_composer_id 
% abcbook-link-0 https://www.youtube.com/watch?v=6gTGOqFhmQc
% abcbook-link-title-0 Pretty Little Shoes
% abcbook-link-start-at-0 8
% abcbook-link-end-at-0 123
% abcbook-boost 0
% abcbook-difficulty 0
% abcbook-tags old time tunes
% abcbook-tablature 
% abcbook-transpose 
% abcbook-tuning AEAE
% abcbook-lastupdated 1739219008627
% abcbook-src-url 
% abcbook-soundfonts 
% abcbook-repeats 1


